img/vector/magazine.svg

<svg width="49" height="48" viewBox="0 0 49 48" fill="none" xmlns="http://www.w3.org/2000/svg">
<g clip-path="url(#clip0_1_414)">
<g clip-path="url(#clip1_1_414)">
<path d="M30.142 13.6241H42.1398V17.0695H30.142V13.6241Z" fill="white"/>
<path d="M30.142 22.2375H42.1398V25.6828H30.142V22.2375Z" fill="white"/>
<path d="M30.142 30.8506H42.1398V34.296H30.142V30.8506Z" fill="white"/>
<path d="M45.5679 5.01111H4.43235C3.52348 5.01202 2.65209 5.3753 2.00942 6.02123C1.36675 6.66715 1.0053 7.54295 1.00439 8.45643V39.4643C1.0053 40.3778 1.36675 41.2536 2.00942 41.8995C2.65209 42.5454 3.52348 42.9087 4.43235 42.9096H45.5679C46.4766 42.9082 47.3477 42.5448 47.9903 41.899C48.6329 41.2532 48.9945 40.3776 48.9958 39.4643V8.45643C48.9949 7.54295 48.6335 6.66715 47.9908 6.02123C47.3481 5.3753 46.4767 5.01202 45.5679 5.01111ZM4.43235 8.45643H23.2861V39.4643H4.43235V8.45643ZM26.7141 39.4643V8.45643H45.5679L45.5713 39.4643H26.7141Z" fill="white"/>
</g>
</g>
<defs>
<clipPath id="clip0_1_414">
<rect width="48" height="48" fill="white" transform="translate(0.5)"/>
</clipPath>
<clipPath id="clip1_1_414">
<rect width="48" height="37.92" fill="white" transform="translate(1 5)"/>
</clipPath>
</defs>
</svg>

<svg width="49" height="48" fill="none" xmlns="http://www.w3.org/2000/svg"><g clip-path="url(#a)"><g clip-path="url(#b)" fill="#fff"><path d="M30.142 13.624H42.14v3.446H30.142v-3.446ZM30.142 22.238H42.14v3.445H30.142v-3.445ZM30.142 30.85H42.14v3.446H30.142v-3.445Z"/><path d="M45.568 5.011H4.432c-.909.001-1.78.364-2.423 1.01a3.458 3.458 0 0 0-1.005 2.435v31.008c.001.914.363 1.79 1.005 2.436a3.423 3.423 0 0 0 2.423 1.01h41.136a3.425 3.425 0 0 0 2.422-1.011 3.459 3.459 0 0 0 1.006-2.435V8.456c-.001-.913-.363-1.789-1.005-2.435a3.423 3.423 0 0 0-2.423-1.01ZM4.432 8.456h18.854v31.008H4.432V8.456Zm22.282 31.008V8.456h18.854l.003 31.008H26.714Z"/></g></g><defs><clipPath id="a"><path fill="#fff" transform="translate(.5)" d="M0 0h48v48H0z"/></clipPath><clipPath id="b"><path fill="#fff" transform="translate(1 5)" d="M0 0h48v37.92H0z"/></clipPath></defs></svg>
